svg/blobs-icons/no-decorations/baby-bottle.svg

<svg xmlns="http://www.w3.org/2000/svg" xmlns:xlink="http://www.w3.org/1999/xlink" preserveAspectRatio="xMidYMid" width="116" height="217" viewBox="0 0 116 217"><defs><style>.cls-3{fill:#fbb713}.cls-4{fill:#fff}.cls-5{fill:#ff3a2f}.cls-7{fill:#020403;opacity:.25}.cls-8{fill:#020403;opacity:.35}.cls-9{fill:#142a3b}</style></defs><g id="group-100svg"><path d="M110.316 216.97s-105.514.0-105.514.0c-2.65.0-4.798-2.148-4.798-4.797V74.549C.004 71.9 2.152 69.752 4.802 69.752H110.316C112.966 69.752 115.114 71.9 115.114 74.549V212.173c0 2.649-2.14800000000001 4.797-4.798 4.797z" id="path-1" class="cls-3" fill-rule="evenodd"/><path d="M11.222 170.892C9.226 170.892 7.608 169.273 7.608 167.277V97.008c0-8.646 7.033-15.678 15.679-15.678 1.996.0 3.614 1.618 3.614 3.614.0 1.996-1.618 3.614-3.614 3.614C18.627 88.558 14.836 92.349 14.836 97.008v70.269C14.836 169.273 13.218 170.892 11.222 170.892z" id="path-2" class="cls-4" fill-rule="evenodd"/><path d="M69.306 31.272c3.795-3.298 6.244-7.93 6.244-13.353C75.55 7.981 67.495.013 57.559.013c-9.937.0-17.992 8.099-17.992 18.036.0 5.423 2.45 9.903 6.245 13.201C29.49 36.268 17.623 51.1 17.623 69.099H97.495c0-17.999-11.868-32.809-28.189-37.827z" id="path-3" class="cls-5" fill-rule="evenodd"/><path d="M46.835 26.101c-1.991.0-3.61-2.341-3.615-4.333C43.206 17.066 45.218 12.235 48.743 9.155 50.248 7.838 52.53 7.814 53.843 9.313 55.156 10.816 55.004 13.009 53.501 14.323c-1.947 1.703-3.059 4.86-3.052 7.468C50.455 23.787 48.841 26.101 46.845 26.101 46.841 26.101 46.838 26.101 46.835 26.101z" id="path-4" class="cls-4" fill-rule="evenodd"/><path d="M96.299 69.752S95.506 69.752 95.506 69.752s0 108.795.0 108.795C95.506 188.938 87.082 197.363 76.691 197.363H.004S.004 198.156.004 198.156c0 10.39 8.424 18.814 18.815 18.814h77.48c10.39.0 18.815-8.42400000000001 18.815-18.814V88.567C115.114 78.176 106.689 69.752 96.299 69.752z" id="path-5" class="cls-7" fill-rule="evenodd"/><path d="M69.306 31.712c3.795-3.299 6.245-8.172 6.245-13.594C75.551 8.18 67.495.092 57.559.092c-2.829.0-5.471.709-7.852 1.872C55.7 4.893 59.865 11.002 59.865 18.118c0 5.422-2.45 10.295-6.246 13.594 16.323 5.018 28.19 18.701 28.19 38.309H97.495c0-19.608-11.868-33.291-28.189-38.309z" id="path-6" class="cls-8" fill-rule="evenodd"/><path d="M111.028 112.098s-36.145.0-36.145.0c-1.996.0-3.615-1.504-3.615-3.5s1.619-3.5 3.615-3.5h36.145c1.996.0 3.615 1.504 3.615 3.5s-1.619 3.5-3.615 3.5z" id="path-7" class="cls-9" fill-rule="evenodd"/><path d="M111.028 131.097s-36.145.0-36.145.0C72.887 131.097 71.268 129.093 71.268 127.097c0-1.99499999999999 1.619-3.999 3.615-3.999h36.145c1.996.0 3.615 2.00400000000001 3.615 3.999C114.643 129.093 113.024 131.097 111.028 131.097z" id="path-8" class="cls-9" fill-rule="evenodd"/><path d="M111.028 152.097s-36.145.0-36.145.0c-1.996.0-3.615-1.50400000000002-3.615-3.5C71.268 146.6 72.887 145.098 74.883 145.098h36.145c1.996.0 3.615 1.50199999999998 3.615 3.499.0 1.99599999999998-1.619 3.5-3.615 3.5z" id="path-9" class="cls-9" fill-rule="evenodd"/></g></svg>

<svg xmlns="http://www.w3.org/2000/svg" xmlns:xlink="http://www.w3.org/1999/xlink" preserveAspectRatio="xMidYMid" width="116" height="217" viewBox="0 0 116 217">
  <defs>
    <style>

      .cls-3 {
        fill: #fbb713;
      }

      .cls-4 {
        fill: #ffffff;
      }

      .cls-5 {
        fill: #ff3a2f;
      }

      .cls-7 {
        fill: #020403;
        opacity: 0.25;
      }

      .cls-8 {
        fill: #020403;
        opacity: 0.35;
      }

      .cls-9 {
        fill: #142a3b;
      }
    </style>
  </defs>
  <g id="group-100svg">
    <path d="M110.316,216.970 C110.316,216.970 4.802,216.970 4.802,216.970 C2.152,216.970 0.004,214.822 0.004,212.173 C0.004,212.173 0.004,74.549 0.004,74.549 C0.004,71.900 2.152,69.752 4.802,69.752 C4.802,69.752 110.316,69.752 110.316,69.752 C112.966,69.752 115.114,71.900 115.114,74.549 C115.114,74.549 115.114,212.173 115.114,212.173 C115.114,214.822 112.966,216.970 110.316,216.970 Z" id="path-1" class="cls-3" fill-rule="evenodd"/>
    <path d="M11.222,170.892 C9.226,170.892 7.608,169.273 7.608,167.277 C7.608,167.277 7.608,97.008 7.608,97.008 C7.608,88.362 14.641,81.330 23.287,81.330 C25.283,81.330 26.901,82.948 26.901,84.944 C26.901,86.940 25.283,88.558 23.287,88.558 C18.627,88.558 14.836,92.349 14.836,97.008 C14.836,97.008 14.836,167.277 14.836,167.277 C14.836,169.273 13.218,170.892 11.222,170.892 Z" id="path-2" class="cls-4" fill-rule="evenodd"/>
    <path d="M69.306,31.272 C73.101,27.974 75.550,23.342 75.550,17.919 C75.550,7.981 67.495,0.013 57.559,0.013 C47.622,0.013 39.567,8.112 39.567,18.049 C39.567,23.472 42.017,27.952 45.812,31.250 C29.490,36.268 17.623,51.100 17.623,69.099 C17.623,69.099 97.495,69.099 97.495,69.099 C97.495,51.100 85.627,36.290 69.306,31.272 Z" id="path-3" class="cls-5" fill-rule="evenodd"/>
    <path d="M46.835,26.101 C44.844,26.101 43.225,23.760 43.220,21.768 C43.206,17.066 45.218,12.235 48.743,9.155 C50.248,7.838 52.530,7.814 53.843,9.313 C55.156,10.816 55.004,13.009 53.501,14.323 C51.554,16.026 50.442,19.183 50.449,21.791 C50.455,23.787 48.841,26.101 46.845,26.101 C46.841,26.101 46.838,26.101 46.835,26.101 Z" id="path-4" class="cls-4" fill-rule="evenodd"/>
    <path d="M96.299,69.752 C96.299,69.752 95.506,69.752 95.506,69.752 C95.506,69.752 95.506,178.547 95.506,178.547 C95.506,188.938 87.082,197.363 76.691,197.363 C76.691,197.363 0.004,197.363 0.004,197.363 C0.004,197.363 0.004,198.156 0.004,198.156 C0.004,208.546 8.428,216.970 18.819,216.970 C18.819,216.970 96.299,216.970 96.299,216.970 C106.689,216.970 115.114,208.546 115.114,198.156 C115.114,198.156 115.114,88.567 115.114,88.567 C115.114,78.176 106.689,69.752 96.299,69.752 Z" id="path-5" class="cls-7" fill-rule="evenodd"/>
    <path d="M69.306,31.712 C73.101,28.413 75.551,23.540 75.551,18.118 C75.551,8.180 67.495,0.092 57.559,0.092 C54.730,0.092 52.088,0.801 49.707,1.964 C55.700,4.893 59.865,11.002 59.865,18.118 C59.865,23.540 57.415,28.413 53.619,31.712 C69.942,36.730 81.809,50.413 81.809,70.021 C81.809,70.021 97.495,70.021 97.495,70.021 C97.495,50.413 85.627,36.730 69.306,31.712 Z" id="path-6" class="cls-8" fill-rule="evenodd"/>
    <path d="M111.028,112.098 C111.028,112.098 74.883,112.098 74.883,112.098 C72.887,112.098 71.268,110.594 71.268,108.598 C71.268,106.602 72.887,105.098 74.883,105.098 C74.883,105.098 111.028,105.098 111.028,105.098 C113.024,105.098 114.643,106.602 114.643,108.598 C114.643,110.594 113.024,112.098 111.028,112.098 Z" id="path-7" class="cls-9" fill-rule="evenodd"/>
    <path d="M111.028,131.097 C111.028,131.097 74.883,131.097 74.883,131.097 C72.887,131.097 71.268,129.093 71.268,127.097 C71.268,125.102 72.887,123.098 74.883,123.098 C74.883,123.098 111.028,123.098 111.028,123.098 C113.024,123.098 114.643,125.102 114.643,127.097 C114.643,129.093 113.024,131.097 111.028,131.097 Z" id="path-8" class="cls-9" fill-rule="evenodd"/>
    <path d="M111.028,152.097 C111.028,152.097 74.883,152.097 74.883,152.097 C72.887,152.097 71.268,150.593 71.268,148.597 C71.268,146.600 72.887,145.098 74.883,145.098 C74.883,145.098 111.028,145.098 111.028,145.098 C113.024,145.098 114.643,146.600 114.643,148.597 C114.643,150.593 113.024,152.097 111.028,152.097 Z" id="path-9" class="cls-9" fill-rule="evenodd"/>
  </g>
</svg>
